svg/logoSimple.svg

<svg width="38pt" height="38pt" version="1.1" viewBox="54 -2 43 43" xmlns="http://www.w3.org/2000/svg">
 <g>
  <path d="m66.471 4.76a4.7491 4.7491 0 0 1-4.7491 4.7491 4.7491 4.7491 0 0 1-4.7491-4.7491 4.7491 4.7491 0 0 1 4.7491-4.7491 4.7491 4.7491 0 0 1 4.7491 4.7491z"/>
  <path d="m75.011 4.76a3.7993 3.7993 0 0 1-3.7993 3.7993 3.7993 3.7993 0 0 1-3.7993-3.7993 3.7993 3.7993 0 0 1 3.7993-3.7993 3.7993 3.7993 0 0 1 3.7993 3.7993z"/>
  <path d="m83.549 4.76a2.8494 2.8494 0 0 1-2.8494 2.8494 2.8494 2.8494 0 0 1-2.8494-2.8494 2.8494 2.8494 0 0 1 2.8494-2.8494 2.8494 2.8494 0 0 1 2.8494 2.8494z"/>
  <path d="m92.088 4.78a1.8996 1.8996 0 0 1-1.8996 1.8996 1.8996 1.8996 0 0 1-1.8996-1.8996 1.8996 1.8996 0 0 1 1.8996-1.8996 1.8996 1.8996 0 0 1 1.8996 1.8996z"/>
  <path d="m66.471 14.26a4.7491 4.7491 0 0 1-4.7491 4.7491 4.7491 4.7491 0 0 1-4.7491-4.7491 4.7491 4.7491 0 0 1 4.7491-4.7491 4.7491 4.7491 0 0 1 4.7491 4.7491z"/>
  <path d="m75.011 14.26a3.7993 3.7993 0 0 1-3.7993 3.7993 3.7993 3.7993 0 0 1-3.7993-3.7993 3.7993 3.7993 0 0 1 3.7993-3.7993 3.7993 3.7993 0 0 1 3.7993 3.7993z"/>
  <path d="m83.549 14.26a2.8494 2.8494 0 0 1-2.8494 2.8494 2.8494 2.8494 0 0 1-2.8494-2.8494 2.8494 2.8494 0 0 1 2.8494-2.8494 2.8494 2.8494 0 0 1 2.8494 2.8494z"/>
  <path d="m92.088 14.28a1.8996 1.8996 0 0 1-1.8996 1.8996 1.8996 1.8996 0 0 1-1.8996-1.8996 1.8996 1.8996 0 0 1 1.8996-1.8996 1.8996 1.8996 0 0 1 1.8996 1.8996z"/>
  <path d="m66.477 23.75a4.7491 4.7491 0 0 1-4.7491 4.7491 4.7491 4.7491 0 0 1-4.7491-4.7491 4.7491 4.7491 0 0 1 4.7491-4.7491 4.7491 4.7491 0 0 1 4.7491 4.7491z"/>
  <path d="m75.017 23.75a3.7993 3.7993 0 0 1-3.7993 3.7993 3.7993 3.7993 0 0 1-3.7993-3.7993 3.7993 3.7993 0 0 1 3.7993-3.7993 3.7993 3.7993 0 0 1 3.7993 3.7993z"/>
  <path d="m83.555 23.75a2.8494 2.8494 0 0 1-2.8494 2.8494 2.8494 2.8494 0 0 1-2.8494-2.8494 2.8494 2.8494 0 0 1 2.8494-2.8494 2.8494 2.8494 0 0 1 2.8494 2.8494z"/>
  <path d="m92.094 23.77a1.8996 1.8996 0 0 1-1.8996 1.8996 1.8996 1.8996 0 0 1-1.8996-1.8996 1.8996 1.8996 0 0 1 1.8996-1.8996 1.8996 1.8996 0 0 1 1.8996 1.8996z"/>
  <path d="m66.478 33.25a4.7491 4.7491 0 0 1-4.7491 4.7491 4.7491 4.7491 0 0 1-4.7491-4.7491 4.7491 4.7491 0 0 1 4.7491-4.7491 4.7491 4.7491 0 0 1 4.7491 4.7491z"/>
  <path d="m75.017 33.25a3.7993 3.7993 0 0 1-3.7993 3.7993 3.7993 3.7993 0 0 1-3.7993-3.7993 3.7993 3.7993 0 0 1 3.7993-3.7993 3.7993 3.7993 0 0 1 3.7993 3.7993z"/>
  <path d="m83.556 33.25a2.8494 2.8494 0 0 1-2.8494 2.8494 2.8494 2.8494 0 0 1-2.8494-2.8494 2.8494 2.8494 0 0 1 2.8494-2.8494 2.8494 2.8494 0 0 1 2.8494 2.8494z"/>
  <path d="m92.094 33.28a1.8996 1.8996 0 0 1-1.8996 1.8996 1.8996 1.8996 0 0 1-1.8996-1.8996 1.8996 1.8996 0 0 1 1.8996-1.8996 1.8996 1.8996 0 0 1 1.8996 1.8996z"/>
 </g>
</svg>

<?xml version="1.0" encoding="UTF-8" standalone="no"?>
<svg
   xmlns:dc="http://purl.org/dc/elements/1.1/"
   xmlns:cc="http://creativecommons.org/ns#"
   xmlns:rdf="http://www.w3.org/1999/02/22-rdf-syntax-ns#"
   xmlns:svg="http://www.w3.org/2000/svg"
   xmlns="http://www.w3.org/2000/svg"
   xmlns:sodipodi="http://sodipodi.sourceforge.net/DTD/sodipodi-0.dtd"
   xmlns:inkscape="http://www.inkscape.org/namespaces/inkscape"
   width="64px"
   height="64px"
   version="1.1"
   viewBox="54 -2 43 43"
   id="svg36"
   sodipodi:docname="logoSimple.svg"
   inkscape:version="0.92.3 (2405546, 2018-03-11)">
  <metadata
     id="metadata42">
    <rdf:RDF>
      <cc:Work
         rdf:about="">
        <dc:format>image/svg+xml</dc:format>
        <dc:type
           rdf:resource="http://purl.org/dc/dcmitype/StillImage" />
        <dc:title></dc:title>
      </cc:Work>
    </rdf:RDF>
  </metadata>
  <defs
     id="defs40" />
  <sodipodi:namedview
     pagecolor="#ffffff"
     bordercolor="#666666"
     borderopacity="1"
     objecttolerance="10"
     gridtolerance="10"
     guidetolerance="10"
     inkscape:pageopacity="0"
     inkscape:pageshadow="2"
     inkscape:window-width="1920"
     inkscape:window-height="1017"
     id="namedview38"
     showgrid="false"
     inkscape:zoom="1.32"
     inkscape:cx="-1.7627119"
     inkscape:cy="66.090909"
     inkscape:window-x="1912"
     inkscape:window-y="-8"
     inkscape:window-maximized="1"
     inkscape:current-layer="svg36" />
  <g
     id="g34"
     transform="translate(0,0.83475379)">
    <path
       d="M 66.471,4.76 A 4.7491,4.7491 0 0 1 61.7219,9.5091 4.7491,4.7491 0 0 1 56.9728,4.76 4.7491,4.7491 0 0 1 61.7219,0.0109 4.7491,4.7491 0 0 1 66.471,4.76 Z"
       id="path2"
       inkscape:connector-curvature="0" />
    <path
       d="M 75.011,4.76 A 3.7993,3.7993 0 0 1 71.2117,8.5593 3.7993,3.7993 0 0 1 67.4124,4.76 3.7993,3.7993 0 0 1 71.2117,0.9607 3.7993,3.7993 0 0 1 75.011,4.76 Z"
       id="path4"
       inkscape:connector-curvature="0" />
    <path
       d="M 83.549,4.76 A 2.8494,2.8494 0 0 1 80.6996,7.6094 2.8494,2.8494 0 0 1 77.8502,4.76 2.8494,2.8494 0 0 1 80.6996,1.9106 2.8494,2.8494 0 0 1 83.549,4.76 Z"
       id="path6"
       inkscape:connector-curvature="0" />
    <path
       d="M 92.088,4.78 A 1.8996,1.8996 0 0 1 90.1884,6.6796 1.8996,1.8996 0 0 1 88.2888,4.78 1.8996,1.8996 0 0 1 90.1884,2.8804 1.8996,1.8996 0 0 1 92.088,4.78 Z"
       id="path8"
       inkscape:connector-curvature="0" />
    <path
       d="M 66.471,14.26 A 4.7491,4.7491 0 0 1 61.7219,19.0091 4.7491,4.7491 0 0 1 56.9728,14.26 4.7491,4.7491 0 0 1 61.7219,9.5109 4.7491,4.7491 0 0 1 66.471,14.26 Z"
       id="path10"
       inkscape:connector-curvature="0" />
    <path
       d="M 75.011,14.26 A 3.7993,3.7993 0 0 1 71.2117,18.0593 3.7993,3.7993 0 0 1 67.4124,14.26 3.7993,3.7993 0 0 1 71.2117,10.4607 3.7993,3.7993 0 0 1 75.011,14.26 Z"
       id="path12"
       inkscape:connector-curvature="0" />
    <path
       d="M 83.549,14.26 A 2.8494,2.8494 0 0 1 80.6996,17.1094 2.8494,2.8494 0 0 1 77.8502,14.26 2.8494,2.8494 0 0 1 80.6996,11.4106 2.8494,2.8494 0 0 1 83.549,14.26 Z"
       id="path14"
       inkscape:connector-curvature="0" />
    <path
       d="M 92.088,14.28 A 1.8996,1.8996 0 0 1 90.1884,16.1796 1.8996,1.8996 0 0 1 88.2888,14.28 1.8996,1.8996 0 0 1 90.1884,12.3804 1.8996,1.8996 0 0 1 92.088,14.28 Z"
       id="path16"
       inkscape:connector-curvature="0" />
    <path
       d="M 66.477,23.75 A 4.7491,4.7491 0 0 1 61.7279,28.4991 4.7491,4.7491 0 0 1 56.9788,23.75 4.7491,4.7491 0 0 1 61.7279,19.0009 4.7491,4.7491 0 0 1 66.477,23.75 Z"
       id="path18"
       inkscape:connector-curvature="0" />
    <path
       d="M 75.017,23.75 A 3.7993,3.7993 0 0 1 71.2177,27.5493 3.7993,3.7993 0 0 1 67.4184,23.75 3.7993,3.7993 0 0 1 71.2177,19.9507 3.7993,3.7993 0 0 1 75.017,23.75 Z"
       id="path20"
       inkscape:connector-curvature="0" />
    <path
       d="M 83.555,23.75 A 2.8494,2.8494 0 0 1 80.7056,26.5994 2.8494,2.8494 0 0 1 77.8562,23.75 2.8494,2.8494 0 0 1 80.7056,20.9006 2.8494,2.8494 0 0 1 83.555,23.75 Z"
       id="path22"
       inkscape:connector-curvature="0" />
    <path
       d="M 92.094,23.77 A 1.8996,1.8996 0 0 1 90.1944,25.6696 1.8996,1.8996 0 0 1 88.2948,23.77 1.8996,1.8996 0 0 1 90.1944,21.8704 1.8996,1.8996 0 0 1 92.094,23.77 Z"
       id="path24"
       inkscape:connector-curvature="0" />
    <path
       d="M 66.478,33.25 A 4.7491,4.7491 0 0 1 61.7289,37.9991 4.7491,4.7491 0 0 1 56.9798,33.25 4.7491,4.7491 0 0 1 61.7289,28.5009 4.7491,4.7491 0 0 1 66.478,33.25 Z"
       id="path26"
       inkscape:connector-curvature="0" />
    <path
       d="M 75.017,33.25 A 3.7993,3.7993 0 0 1 71.2177,37.0493 3.7993,3.7993 0 0 1 67.4184,33.25 3.7993,3.7993 0 0 1 71.2177,29.4507 3.7993,3.7993 0 0 1 75.017,33.25 Z"
       id="path28"
       inkscape:connector-curvature="0" />
    <path
       d="M 83.556,33.25 A 2.8494,2.8494 0 0 1 80.7066,36.0994 2.8494,2.8494 0 0 1 77.8572,33.25 2.8494,2.8494 0 0 1 80.7066,30.4006 2.8494,2.8494 0 0 1 83.556,33.25 Z"
       id="path30"
       inkscape:connector-curvature="0" />
    <path
       d="M 92.094,33.28 A 1.8996,1.8996 0 0 1 90.1944,35.1796 1.8996,1.8996 0 0 1 88.2948,33.28 1.8996,1.8996 0 0 1 90.1944,31.3804 1.8996,1.8996 0 0 1 92.094,33.28 Z"
       id="path32"
       inkscape:connector-curvature="0" />
  </g>
</svg>
